X: 26
M:2/4
L:1/8
K:G
{^A}B/G/D/E/ G/A/G/D/ | F/D/E/^C/ D2 | ^C/D/C/D/ B/G/A/F/ | G4 |
{^A}B/G/D/E/ G/A/G/D/ | F/D/E/^C/ D2 | ^C/D/C/D/ B/^A/B/G/ |
d>{^A}(BA/) G2 | {^A}B/G/D/E/ G/A/G/D/ | F/D/E/^C/ D2 |
^C/D/C/D/ B/G/A/F/ | G4 ||



